X:1
T:Sweet Willie
Z:Jack Campin - http://www.campin.me.uk
S:Blaikie MS (NLS MS.1578) p1, Blaikie #1
M:C
L:1/8
V:1 midi program 1 74
V:2 midi program 1 46 bass middle = d transpose -24
Q:1/4=108
K:Bb
[V:1] F2|G2B2 d2cB|G3 F F2F2|G2B2 d2cB|e2 f2 f2
[V:2] z2|e2d2 B2d2|e2d2 B2d2|e2d2 B2d2|e2 d2 B2
%
[V:1] ed|c2B2 d2cB|G2GB F2ED|E2E2 F2cB|G2 B4   |]
[V:2] b2|f2d2 B2d2|e4   d2B2|e2c2 f2f2|e2 B2 B2|]
W:Transcription (c) Jack Campin 2009, no mirroring or republication without permission

